X: 145
T: Old Molly Hare
B: canberra pickers and fiddlers
B: old time tunes update
B: tunes
M:2/2
L:1/8
Q: 1/2=100
K:D
V:1 
x8 | x8 | [d2f][df][df] [d2f][df][df] | [d2f][df][df] [d2f][d2f] ||
|:[P: A Part]"D"afaf "G"bfbf | gfeg "A"a2-a2 | "D"fedf "G"gfed | "A"cABc "D"d2z2:|
f2-| "D"fdfd "G"gdgd | fdfd "A"ecec | "D"fdfd "G"gfed | "A"cABc "D"d2z2:|
% abcbook-tune_id 67a7d9ec52308b591e73ce37
% abcbook-tune_composer_id 
% abcbook-link-0 https://www.youtube.com/watch?v=S-WLvGYaE90
% abcbook-link-title-0 Old Molly Hare
% abcbook-boost 0
% abcbook-difficulty 0
% abcbook-tags old time tunes
% abcbook-tablature 
% abcbook-transpose 
% abcbook-tuning ADAE
% abcbook-lastupdated 1739214602895
% abcbook-src-url 
% abcbook-soundfonts 
% abcbook-repeats 1


